X:30
T:The Goldfinch
R:jig
C: Paul Gitlitz 1999
M:6/8
L:1/8
K:G
|"G"DGA B2d|"Am"cA2-AAc|"G"BG2-GAB|"Em"AGE "D"D2D|!
"G"DGAB2d|"Am"cA2-A2(cd|"C"e)(dc "D"A2)B
|1"G"G3-G2D|2"G"G3-Geg:|!
:"D"fd2-def|"C"ec2-cde|"Bm"dB2-Bcd|"Am"edc  "D"A2g|!
"D"fd2-def|"C"ec2-cde|"C"dcB "D"A2B|1"G"G3-Gef:|2"G"G3-G|]
W:These lovely cheerful yellow visitors to my feeders makes
W: me think of summer mornings.
